SVG_Azure_All/Application Insights Retention.svg

<?xml version="1.0" encoding="UTF-8" standalone="no"?>
<!-- Generated by Microsoft Visio, SVG Export Application Insights Retention.svg Page-1 -->

<svg
   xmlns:dc="http://purl.org/dc/elements/1.1/"
   xmlns:cc="http://creativecommons.org/ns#"
   xmlns:rdf="http://www.w3.org/1999/02/22-rdf-syntax-ns#"
   xmlns:svg="http://www.w3.org/2000/svg"
   xmlns="http://www.w3.org/2000/svg"
   xmlns:sodipodi="http://sodipodi.sourceforge.net/DTD/sodipodi-0.dtd"
   xmlns:inkscape="http://www.inkscape.org/namespaces/inkscape"
   width="0.78734195in"
   height="0.7480337in"
   viewBox="0 0 56.688688 53.858512"
   xml:space="preserve"
   class="st7"
   version="1.1"
   id="svg59"
   sodipodi:docname="Application Insights Retention.svg"
   style="font-size:12px;overflow:visible;color-interpolation-filters:sRGB;fill:none;fill-rule:evenodd;stroke-linecap:square;stroke-miterlimit:3"
   inkscape:version="0.92.5 (2060ec1f9f, 2020-04-08)"><metadata
   id="metadata65"><rdf:RDF><cc:Work
       rdf:about=""><dc:format>image/svg+xml</dc:format><dc:type
         rdf:resource="http://purl.org/dc/dcmitype/StillImage" /></cc:Work></rdf:RDF></metadata><defs
   id="defs63" /><sodipodi:namedview
   pagecolor="#ffffff"
   bordercolor="#666666"
   borderopacity="1"
   objecttolerance="10"
   gridtolerance="10"
   guidetolerance="10"
   inkscape:pageopacity="0"
   inkscape:pageshadow="2"
   inkscape:window-width="640"
   inkscape:window-height="480"
   id="namedview61"
   showgrid="false"
   inkscape:zoom="1.7679873"
   inkscape:cx="37.795224"
   inkscape:cy="21.383051"
   inkscape:window-x="0"
   inkscape:window-y="0"
   inkscape:window-maximized="0"
   inkscape:current-layer="svg59" />
	<style
   type="text/css"
   id="style2">
	<![CDATA[
		.st1 {fill:#59b4d9;stroke:none;stroke-linecap:butt;stroke-width:12.24}
		.st2 {fill:#a0a1a2;stroke:none;stroke-linecap:butt;stroke-width:12.24}
		.st3 {fill:#ffffff;fill-opacity:0.2;stroke:none;stroke-linecap:butt;stroke-width:12.24}
		.st4 {fill:#ffffff;stroke:none;stroke-linecap:butt;stroke-width:12.24}
		.st5 {fill:#804998;stroke:none;stroke-linecap:butt;stroke-width:12.24}
		.st6 {fill:#ffffff;fill-opacity:0.15;stroke:none;stroke-linecap:butt;stroke-width:12.24}
		.st7 {fill:none;fill-rule:evenodd;font-size:12px;overflow:visible;stroke-linecap:square;stroke-miterlimit:3}
	]]>
	</style>

	<g
   id="g57"
   transform="translate(-12.24,-12.2358)">
		<title
   id="title4">Page-1</title>
		<g
   id="group9550-1"
   transform="translate(12.24,-34.0157)">
			<title
   id="title6">Application Insights Retention</title>
			<g
   id="group9551-2">
				<title
   id="title8">Sheet.9551</title>
				<g
   id="shape9552-3"
   transform="translate(0,-11.9685)">
					<title
   id="title10">Sheet.9552</title>
					<path
   d="m 0,98.31 c 0,1 0.81,1.8 1.8,1.8 h 46 c 1,0 1.81,-0.8 1.81,-1.8 V 66.58 H 0 Z"
   class="st1"
   id="path12"
   inkscape:connector-curvature="0"
   style="fill:#59b4d9;stroke:none;stroke-width:12.23999977;stroke-linecap:butt" />
				</g>
				<g
   id="shape9553-5"
   transform="translate(0,-43.0866)">
					<title
   id="title15">Sheet.9553</title>
					<path
   d="M 47.81,89.34 H 1.8 c -0.99,0 -1.8,0.81 -1.8,1.8 v 8.97 h 49.61 v -8.97 c 0,-0.99 -0.81,-1.8 -1.8,-1.8 z"
   class="st2"
   id="path17"
   inkscape:connector-curvature="0"
   style="fill:#a0a1a2;stroke:none;stroke-width:12.23999977;stroke-linecap:butt" />
				</g>
				<g
   id="shape9554-7"
   transform="translate(0.00590551,-11.9685)">
					<title
   id="title20">Sheet.9554</title>
					<path
   d="M 1.8,58.22 C 0.81,58.22 0,59.03 0,60.03 v 38.28 c 0,1 0.81,1.8 1.8,1.8 H 5.9 L 39.15,58.22 Z"
   class="st3"
   id="path22"
   inkscape:connector-curvature="0"
   style="fill:#ffffff;fill-opacity:0.2;stroke:none;stroke-width:12.23999977;stroke-linecap:butt" />
				</g>
				<g
   id="shape9555-9"
   transform="translate(12.9921,-46.6772)">
					<title
   id="title25">Sheet.9555</title>
					<rect
   x="0"
   y="96.523499"
   width="31.889799"
   height="3.5905499"
   class="st4"
   id="rect27"
   style="fill:#ffffff;stroke:none;stroke-width:12.23999977;stroke-linecap:butt" />
				</g>
				<g
   id="shape9556-11"
   transform="translate(2.48031,-44.4031)">
					<title
   id="title30">Sheet.9556</title>
					<path
   d="m 8.03,96.04 a 4.01575,4.06929 0 0 1 -8.03,0 4.01575,4.06929 0 1 1 8.03,0 z"
   class="st1"
   id="path32"
   inkscape:connector-curvature="0"
   style="fill:#59b4d9;stroke:none;stroke-width:12.23999977;stroke-linecap:butt" />
				</g>
				<g
   id="shape9557-13"
   transform="translate(3.54331,-45.4803)">
					<title
   id="title35">Sheet.9557</title>
					<path
   d="m 2.36,97.72 2.36,2.39 H 2.95 L 0,97.12 2.95,94.13 h 1.77 l -2.36,2.39 h 4.73 v 1.2 z"
   class="st4"
   id="path37"
   inkscape:connector-curvature="0"
   style="fill:#ffffff;stroke:none;stroke-width:12.23999977;stroke-linecap:butt" />
				</g>
				<g
   id="shape9558-15"
   transform="translate(30.7087)">
					<title
   id="title40">Sheet.9558</title>
					<path
   d="m 21.14,70.19 a 8.15,8.2586652 0 1 1 -16.3,0 8.15,8.2586652 0 0 1 16.3,0 z m -3.42,9.58 -4.73,8.38 -4.72,-8.38 H 0 v 20.34 H 25.98 V 79.77 Z"
   class="st5"
   id="path42"
   inkscape:connector-curvature="0"
   style="fill:#804998;stroke:none;stroke-width:12.23999977;stroke-linecap:butt" />
				</g>
				<g
   id="shape9559-17"
   transform="translate(30.7087)">
					<title
   id="title45">Sheet.9559</title>
					<path
   d="m 14.71,62.12 a 8.14961,8.25827 -180 0 0 -9.87,8.07 c 0,4.44 3.46,8.06 7.8,8.24 z M 8.27,79.77 H 0 v 20.34 H 9.48 L 11.73,85.9 Z"
   class="st6"
   id="path47"
   inkscape:connector-curvature="0"
   style="fill:#ffffff;fill-opacity:0.15;stroke:none;stroke-width:12.23999977;stroke-linecap:butt" />
				</g>
				<g
   id="shape9560-19"
   transform="translate(19.0157,-22.7402)">
					<title
   id="title50">Sheet.9560</title>
					<path
   d="m 2.24,85.75 c 0,0 -2.24,2.4 -2.24,7.18 0,4.79 2.24,7.18 2.24,7.18 l 14.18,-7.18 z"
   class="st4"
   id="path52"
   inkscape:connector-curvature="0"
   style="fill:#ffffff;stroke:none;stroke-width:12.23999977;stroke-linecap:butt" />
				</g>
			</g>
		</g>
	</g>
</svg>

<?xml version="1.0" encoding="UTF-8" standalone="no"?>
<!DOCTYPE svg PUBLIC "-//W3C//DTD SVG 1.1//EN" "http://www.w3.org/Graphics/SVG/1.1/DTD/svg11.dtd">
<!-- Generated by Microsoft Visio, SVG Export Application Insights Retention.svg Page-1 -->
<svg xmlns="http://www.w3.org/2000/svg" xmlns:xlink="http://www.w3.org/1999/xlink" xmlns:ev="http://www.w3.org/2001/xml-events"
		width="1.1274in" height="1.39047in" viewBox="0 0 81.1729 100.114" xml:space="preserve" color-interpolation-filters="sRGB"
		class="st7">
	<style type="text/css">
	<![CDATA[
		.st1 {fill:#59b4d9;stroke:none;stroke-linecap:butt;stroke-width:12.24}
		.st2 {fill:#a0a1a2;stroke:none;stroke-linecap:butt;stroke-width:12.24}
		.st3 {fill:#ffffff;fill-opacity:0.2;stroke:none;stroke-linecap:butt;stroke-width:12.24}
		.st4 {fill:#ffffff;stroke:none;stroke-linecap:butt;stroke-width:12.24}
		.st5 {fill:#804998;stroke:none;stroke-linecap:butt;stroke-width:12.24}
		.st6 {fill:#ffffff;fill-opacity:0.15;stroke:none;stroke-linecap:butt;stroke-width:12.24}
		.st7 {fill:none;fill-rule:evenodd;font-size:12px;overflow:visible;stroke-linecap:square;stroke-miterlimit:3}
	]]>
	</style>

	<g>
		<title>Page-1</title>
		<g id="group9345-1" transform="translate(12.24,-34.0157)">
			<title>Application Insights Retention</title>
			<g id="group9346-2">
				<title>Sheet.9346</title>
				<g id="shape9347-3" transform="translate(0,-11.9685)">
					<title>Sheet.9347</title>
					<path d="M0 98.31 C0 99.31 0.81 100.11 1.8 100.11 L47.8 100.11 C48.8 100.11 49.61 99.31 49.61 98.31 L49.61 66.58
								 L0 66.58 L0 98.31 Z" class="st1"/>
				</g>
				<g id="shape9348-5" transform="translate(0,-43.0866)">
					<title>Sheet.9348</title>
					<path d="M47.81 89.34 L1.8 89.34 C0.81 89.34 0 90.15 0 91.14 L0 100.11 L49.61 100.11 L49.61 91.14 C49.61 90.15
								 48.8 89.34 47.81 89.34 Z" class="st2"/>
				</g>
				<g id="shape9349-7" transform="translate(0.00590551,-11.9685)">
					<title>Sheet.9349</title>
					<path d="M1.8 58.22 C0.81 58.22 0 59.03 0 60.03 L0 98.31 C0 99.31 0.81 100.11 1.8 100.11 L5.9 100.11 L39.15 58.22
								 L1.8 58.22 Z" class="st3"/>
				</g>
				<g id="shape9350-9" transform="translate(12.9921,-46.6772)">
					<title>Sheet.9350</title>
					<rect x="0" y="96.5235" width="31.8898" height="3.59055" class="st4"/>
				</g>
				<g id="shape9351-11" transform="translate(2.48031,-44.4031)">
					<title>Sheet.9351</title>
					<path d="M8.03 96.04 A4.01575 4.06929 0 0 1 0 96.04 A4.01575 4.06929 0 1 1 8.03 96.04 Z" class="st1"/>
				</g>
				<g id="shape9352-13" transform="translate(3.54331,-45.4803)">
					<title>Sheet.9352</title>
					<path d="M2.36 97.72 L4.72 100.11 L2.95 100.11 L0 97.12 L2.95 94.13 L4.72 94.13 L2.36 96.52 L7.09 96.52 L7.09
								 97.72 L2.36 97.72 Z" class="st4"/>
				</g>
				<g id="shape9353-15" transform="translate(30.7087,2.70006E-13)">
					<title>Sheet.9353</title>
					<path d="M21.14 70.19 A8.14961 8.25827 0 1 1 4.84 70.19 A8.14961 8.25827 0 0 1 21.14 70.19 ZM17.72 79.77 L12.99
								 88.15 L8.27 79.77 L0 79.77 L0 100.11 L25.98 100.11 L25.98 79.77 L17.72 79.77 Z" class="st5"/>
				</g>
				<g id="shape9354-17" transform="translate(30.7087,0)">
					<title>Sheet.9354</title>
					<path d="M14.71 62.12 A8.14961 8.25827 -180 0 0 4.84 70.19 C4.84 74.63 8.3 78.25 12.64 78.43 L14.71 62.12 ZM8.27
								 79.77 L0 79.77 L0 100.11 L9.48 100.11 L11.73 85.9 L8.27 79.77 Z" class="st6"/>
				</g>
				<g id="shape9355-19" transform="translate(19.0157,-22.7402)">
					<title>Sheet.9355</title>
					<path d="M2.24 85.75 C2.24 85.75 0 88.15 0 92.93 C0 97.72 2.24 100.11 2.24 100.11 L16.42 92.93 L2.24 85.75 Z"
							class="st4"/>
				</g>
			</g>
		</g>
	</g>
</svg>
